X: 1
T:Lady Of The Lake
S: traditional, via Phil Rowe
N: Originally from Nottingham Music Database http://www.cs.nott.ac.uk/Department/Staff/ef/database.html
N: abc version of NMD at http://diana.ecs.soton.ac.uk/~jra/NMD/ [access 10 December 1996]
N: Adapted by Robert Bley-Vroman, University of Hawaii, 10 December 1996
N: vroman@hawaii.edu
M: 2/2
L: 1/8
Q:1/2=120
K: G
B,A, | G,B,DG BAGB | dBGA BAGB | cdcB AGFG | AGFE DCB,A, |
       G,B,DG BAGB | dBGA BAGB | cdcB AGFE | DFAF G2 :|
|:Bc | dcBd g2gB | cBA2 a3g  | f2fg fedf | ed^ce d2B=c |
       dcBd g2gB | f2fg fedf | fedB cAFD | G2B2 G2 :|
